src/Pure/16/symbolic/actions/mail-send-receive-symbolic.svg

<?xml version="1.0" encoding="UTF-8" standalone="no"?>
<svg
   width="16"
   height="16"
   enable-background="new"
   version="1.1"
   id="svg3"
   sodipodi:docname="mail-send-receive-symbolic.svg"
   inkscape:version="1.4.2 (ebf0e940d0, 2025-05-08)"
   xmlns:inkscape="http://www.inkscape.org/namespaces/inkscape"
   xmlns:sodipodi="http://sodipodi.sourceforge.net/DTD/sodipodi-0.dtd"
   xmlns="http://www.w3.org/2000/svg"
   xmlns:svg="http://www.w3.org/2000/svg">
  <defs
     id="defs3">
    <style
       id="current-color-scheme"
       type="text/css">
        .ColorScheme-Text { color:#363636; }
     </style>
  </defs>
  <sodipodi:namedview
     id="namedview3"
     pagecolor="#ffffff"
     bordercolor="#000000"
     borderopacity="0.25"
     inkscape:showpageshadow="2"
     inkscape:pageopacity="0.0"
     inkscape:pagecheckerboard="0"
     inkscape:deskcolor="#d1d1d1"
     inkscape:zoom="49.6875"
     inkscape:cx="8"
     inkscape:cy="8"
     inkscape:window-width="1920"
     inkscape:window-height="1010"
     inkscape:window-x="0"
     inkscape:window-y="0"
     inkscape:window-maximized="1"
     inkscape:current-layer="svg3" />
  <path
     id="path1"
     style="fill:currentColor"
     class="ColorScheme-Text"
     d="M 5.5 1 C 5.43355 1 5.370404 1.0137734 5.3125 1.0371094 C 5.24972 1.0624194 5.1934964 1.0994724 5.1464844 1.1464844 L 3.0253906 3.2675781 C 2.8295206 3.4634481 2.8295206 3.7787394 3.0253906 3.9746094 C 3.2212606 4.1704794 3.5365519 4.1704794 3.7324219 3.9746094 L 5 2.7070312 L 5 7.5 C 5 7.7769966 5.2230047 7.9999946 5.5 8 C 5.7769954 7.9999947 6 7.7769967 6 7.5 L 6 2.7070312 L 7.2675781 3.9746094 C 7.4634481 4.1704794 7.7787394 4.1704794 7.9746094 3.9746094 C 8.1704794 3.7787394 8.1704794 3.4634481 7.9746094 3.2675781 L 5.8535156 1.1464844 C 5.8064956 1.0994624 5.750278 1.0624094 5.6875 1.0371094 C 5.6296 1.0137744 5.566453 1 5.5 1 z M 9.5 1 C 9.2230047 1.0000054 9 1.2230034 9 1.5 L 9 6.2929688 L 7.7324219 5.0253906 C 7.5365519 4.8295206 7.2212606 4.8295206 7.0253906 5.0253906 C 6.8295206 5.2212606 6.8295206 5.5365519 7.0253906 5.7324219 L 9.1464844 7.8535156 C 9.1934944 7.9005276 9.24972 7.9375806 9.3125 7.9628906 C 9.370404 7.9862266 9.43355 8 9.5 8 C 9.56645 8 9.6296 7.9862256 9.6875 7.9628906 C 9.75028 7.9375906 9.8064956 7.9005376 9.8535156 7.8535156 L 11.974609 5.7324219 C 12.170479 5.5365519 12.170479 5.2212606 11.974609 5.0253906 C 11.778739 4.8295206 11.463448 4.8295206 11.267578 5.0253906 L 10 6.2929688 L 10 1.5 C 10 1.2230033 9.7769954 1.0000053 9.5 1 z M 1.4902344 7 L 0.20507812 8.6777344 C 0.071918125 8.8522144 -0.00015 9.0656663 0 9.2851562 L 0 13 C 0 14.108 0.892 15 2 15 L 13 15 C 14.108 15 14.9979 14.108 15 13 L 15 9.2851562 C 15.000148 9.0656663 14.928082 8.8522144 14.794922 8.6777344 L 13.509766 7 L 12.25 7 L 13.78125 9 L 9.9492188 9 C 9.7116488 10.1639 8.6879 10.9999 7.5 11 C 6.3136 10.998 5.2919875 10.16244 5.0546875 9 L 1.21875 9 L 2.75 7 L 1.4902344 7 z M 1 10 L 4.3417969 10 C 4.9205469 11.2201 6.1496 11.9984 7.5 12 C 8.8503 11.9967 10.069284 11.21367 10.646484 10 L 14 10 L 14 13 C 14 13.554 13.554 14 13 14 L 2 14 C 1.446 14 1 13.554 1 13 L 1 10 z " />
</svg>

<svg width="16" height="16" enable-background="new" version="1.1" xmlns="http://www.w3.org/2000/svg">
 <g fill="#363636">
  <path d="m1.4902 7-1.2852 1.6777c-0.13316 0.17448-0.20523 0.38793-0.20508 0.60742v3.7148c0 1.108 0.892 2 2 2h11c1.108 0 1.9979-0.892 2-2v-3.7148c1.48e-4 -0.21949-0.07192-0.43294-0.20508-0.60742l-1.2852-1.6777h-1.2598l1.5312 2h-3.832c-0.23757 1.1639-1.2613 1.9999-2.4492 2-1.1864-0.00199-2.208-0.83756-2.4453-2h-3.8359l1.5312-2zm-0.49023 3h3.3418c0.57875 1.2201 1.8078 1.9984 3.1582 2 1.3503-0.0033 2.5693-0.78633 3.1465-2h3.3535v3c0 0.554-0.446 1-1 1h-11c-0.554 0-1-0.446-1-1z"/>
  <path d="m5.5 8c-0.277 0-0.5-0.223-0.5-0.5v-4.793l-1.2676 1.2676c-0.19587 0.19587-0.51116 0.19587-0.70703 0s-0.19587-0.51116 0-0.70703l2.1211-2.1211c0.047012-0.047012 0.10324-0.08407 0.16602-0.10938 0.057904-0.023336 0.12105-0.037109 0.1875-0.037109 0.066453 0 0.1296 0.013774 0.1875 0.037109 0.062778 0.0253 0.119 0.062358 0.16602 0.10938l2.1211 2.1211c0.19587 0.19587 0.19587 0.51116 0 0.70703s-0.51116 0.19587-0.70703 0l-1.2676-1.2676v4.793c0 0.277-0.223 0.5-0.5 0.5z"/>
  <path d="m9.5 0.99998c-0.277 0-0.5 0.223-0.5 0.5v4.793l-1.2676-1.2676c-0.19587-0.19587-0.51116-0.19587-0.70703 0s-0.19587 0.51116 0 0.70703l2.1211 2.1211c0.04701 0.047012 0.10324 0.08407 0.16602 0.10938 0.057904 0.023336 0.12105 0.037109 0.1875 0.037109s0.1296-0.013774 0.1875-0.037109c0.06278-0.0253 0.119-0.062358 0.16602-0.10938l2.1211-2.1211c0.19587-0.19587 0.19587-0.51116 0-0.70703s-0.51116-0.19587-0.70703 0l-1.2676 1.2676v-4.793c0-0.277-0.223-0.5-0.5-0.5z"/>
 </g>
</svg>
